packages/ui-solid/icons/sortalphabetically_24.svg

<svg width="24" height="24" viewBox="0 0 24 24" fill="none" xmlns="http://www.w3.org/2000/svg">
<path fill-rule="evenodd" clip-rule="evenodd" d="M2.52881 5.07346C2.52881 4.57641 2.93175 4.17346 3.42881 4.17346H19.7154C20.2125 4.17346 20.6154 4.57641 20.6154 5.07346C20.6154 5.57052 20.2125 5.97346 19.7154 5.97346H3.42881C2.93175 5.97346 2.52881 5.57052 2.52881 5.07346ZM2.52881 9.72592C2.52881 9.22887 2.93175 8.82592 3.42881 8.82592H15.8833C16.3803 8.82592 16.7833 9.22887 16.7833 9.72592C16.7833 10.223 16.3803 10.6259 15.8833 10.6259H3.42881C2.93175 10.6259 2.52881 10.223 2.52881 9.72592ZM2.52881 14.3784C2.52881 13.8813 2.93175 13.4784 3.42881 13.4784H12.4293C12.9264 13.4784 13.3293 13.8813 13.3293 14.3784C13.3293 14.8754 12.9264 15.2784 12.4293 15.2784H3.42881C2.93175 15.2784 2.52881 14.8754 2.52881 14.3784Z" fill="#007AFF"/>
<path fill-rule="evenodd" clip-rule="evenodd" d="M17.3196 12.7172C17.746 11.7555 19.1108 11.7555 19.5372 12.7172L22.3428 19.0456C22.5666 19.5505 22.3388 20.1412 21.8339 20.365C21.329 20.5889 20.7382 20.361 20.5144 19.8561L19.9208 18.5174H16.936L16.3424 19.8561C16.1186 20.361 15.5278 20.5889 15.0229 20.365C14.5181 20.1412 14.2902 19.5505 14.514 19.0456L17.3196 12.7172ZM17.8226 16.5174H19.0342L18.4284 15.151L17.8226 16.5174Z" fill="#007AFF"/>
</svg>

<svg xmlns="http://www.w3.org/2000/svg" width="24" height="24" fill="none"><path fill="currentColor" fill-rule="evenodd" d="M2.529 5.073a.9.9 0 0 1 .9-.9h16.286a.9.9 0 1 1 0 1.8H3.43a.9.9 0 0 1-.9-.9m0 4.653a.9.9 0 0 1 .9-.9h12.454a.9.9 0 0 1 0 1.8H3.43a.9.9 0 0 1-.9-.9m0 4.652a.9.9 0 0 1 .9-.9h9a.9.9 0 1 1 0 1.8h-9a.9.9 0 0 1-.9-.9m14.79-1.661c.426-.962 1.79-.962 2.217 0l2.806 6.329a1 1 0 1 1-1.829.81l-.593-1.339h-2.985l-.594 1.34a1 1 0 1 1-1.828-.811zm.503 3.8h1.211l-.606-1.366z" clip-rule="evenodd"/></svg>
